X:1
T: The Top of Mount Hood
C:Gordy Euler
R:Jig
Q:180
K:Em
M:6/8
L:1/16
|:e2g2e2 B2e2g2|f2d2d2 d6|e2g2e2 B2e2g2|g2e2c2 f2^d2c2|
e2g2e2 B2e2g2|a2g2a2 b2a2b2|g2e2c2 B2^d2f2|e2B2G2 E6:|
|:g2f2g2 b2g2b2|a2f2d2 d6|g2f2g2 f2d2f2|g4g2 f2^d2B2|
e2g2e2 B2e2g2|a2g2a2 b2a2b2|g2e2c2 B2^d2f2|e2B2G2 E6:|
